X: 337
T: Loch Earn
C:Neil Gow
O:Scotland
B:Keith Norman MacDonald : "The Skye collection of the best reels & strathspeys extant" : 1887
Z:Ralph Palmer
R:Reel
M:C
L:1/8
K:G
!f!f | ~g2 dB G2 BG | !p!E2 AG (FD)Df | !sfz!~g2 dB G2 BG | EAFD G2 G :| d | (ef).g.e (fg).a.b | afge fddf |
efge fgag | fefd {/f}g2 (Bd) | efge dBGB | ceBd AGFD | GABG ABce | dBcA G2 G |]


